Numix-Light/16/status/indicator-keyboard-Ch.svg

<?xml version="1.0" encoding="UTF-8" standalone="no"?>
<svg
   xmlns:dc="http://purl.org/dc/elements/1.1/"
   xmlns:cc="http://creativecommons.org/ns#"
   xmlns:rdf="http://www.w3.org/1999/02/22-rdf-syntax-ns#"
   xmlns:svg="http://www.w3.org/2000/svg"
   xmlns="http://www.w3.org/2000/svg"
   xmlns:sodipodi="http://sodipodi.sourceforge.net/DTD/sodipodi-0.dtd"
   xmlns:inkscape="http://www.inkscape.org/namespaces/inkscape"
   viewBox="0 0 16 16"
   id="svg2"
   version="1.1"
   inkscape:version="0.91 r13725"
   sodipodi:docname="indicator-keyboard-Ch.svg">
  <metadata
     id="metadata13">
    <rdf:RDF>
      <cc:Work
         rdf:about="">
        <dc:format>image/svg+xml</dc:format>
        <dc:type
           rdf:resource="http://purl.org/dc/dcmitype/StillImage" />
      </cc:Work>
    </rdf:RDF>
  </metadata>
  <defs
     id="defs11" />
  <sodipodi:namedview
     pagecolor="#ffffff"
     bordercolor="#666666"
     borderopacity="1"
     objecttolerance="10"
     gridtolerance="10"
     guidetolerance="10"
     inkscape:pageopacity="0"
     inkscape:pageshadow="2"
     inkscape:window-width="459"
     inkscape:window-height="369"
     id="namedview9"
     showgrid="false"
     inkscape:zoom="14.75"
     inkscape:cx="8"
     inkscape:cy="8"
     inkscape:window-x="65"
     inkscape:window-y="24"
     inkscape:window-maximized="0"
     inkscape:current-layer="svg2" />
  <path
     style="fill:#353535;fill-opacity:1"
     d="M 1.5996094 0 C 0.71320937 2.9605947e-16 0 0.71320937 0 1.5996094 L 0 14.400391 C 2.9605947e-16 15.286791 0.71320937 16 1.5996094 16 L 14.400391 16 C 15.286791 16 16 15.286791 16 14.400391 L 16 1.5996094 C 16 0.71320937 15.286791 0 14.400391 0 L 1.5996094 0 z M 9.6210938 4.4414062 L 9.6210938 6.90625 C 9.8130938 6.83425 10.009031 6.7801406 10.207031 6.7441406 C 10.405031 6.7021406 10.602781 6.6816406 10.800781 6.6816406 C 11.160781 6.6816406 11.461172 6.7319844 11.701172 6.8339844 C 11.941172 6.9359844 12.133344 7.0833906 12.277344 7.2753906 C 12.421344 7.4613906 12.520219 7.6871719 12.574219 7.9511719 C 12.634219 8.2151719 12.664062 8.5062188 12.664062 8.8242188 L 12.664062 11.423828 L 12.078125 11.423828 L 12.078125 9.0117188 C 12.078125 8.6817188 12.053859 8.4037812 12.005859 8.1757812 C 11.963859 7.9477813 11.88925 7.7611875 11.78125 7.6171875 C 11.67925 7.4731875 11.541188 7.3705469 11.367188 7.3105469 C 11.193188 7.2445469 10.974938 7.2128906 10.710938 7.2128906 C 10.608937 7.2128906 10.496953 7.2222344 10.376953 7.2402344 C 10.262953 7.2582344 10.154734 7.2787344 10.052734 7.3027344 C 9.9507342 7.3207344 9.8593906 7.3412344 9.7753906 7.3652344 C 9.6973906 7.3892344 9.6450938 7.4079219 9.6210938 7.4199219 L 9.6210938 11.423828 L 9.0371094 11.423828 L 9.0371094 4.5488281 L 9.6210938 4.4414062 z M 6.2167969 5.0527344 C 6.4507969 5.0527344 6.6634687 5.0676562 6.8554688 5.0976562 C 7.0474688 5.1276563 7.215375 5.1668437 7.359375 5.2148438 C 7.503375 5.2568438 7.6265156 5.3016094 7.7285156 5.3496094 C 7.8305156 5.3916094 7.9088906 5.4307969 7.9628906 5.4667969 L 7.7636719 5.9980469 C 7.6136719 5.9080469 7.4215 5.8203281 7.1875 5.7363281 C 6.9595 5.6463281 6.6759844 5.6015625 6.3339844 5.6015625 C 5.9439844 5.6015625 5.6006406 5.6668281 5.3066406 5.7988281 C 5.0186406 5.9308281 4.776125 6.1174219 4.578125 6.3574219 C 4.380125 6.5974219 4.2309063 6.8828906 4.1289062 7.2128906 C 4.0329062 7.5428906 3.984375 7.9085469 3.984375 8.3105469 C 3.984375 8.7245469 4.0329062 9.0995469 4.1289062 9.4355469 C 4.2309063 9.7655469 4.3763594 10.04725 4.5683594 10.28125 C 4.7603594 10.51525 4.9954844 10.696266 5.2714844 10.822266 C 5.5534844 10.948266 5.874375 11.009766 6.234375 11.009766 C 6.630375 11.009766 6.9606094 10.974344 7.2246094 10.902344 C 7.4946094 10.824344 7.6979375 10.745969 7.8359375 10.667969 L 8.0078125 11.191406 C 7.9658125 11.221406 7.8930156 11.256828 7.7910156 11.298828 C 7.6890156 11.334828 7.5602969 11.374016 7.4042969 11.416016 C 7.2482969 11.458016 7.0692344 11.489672 6.8652344 11.513672 C 6.6612344 11.543672 6.4316875 11.558594 6.1796875 11.558594 C 5.7776875 11.558594 5.4026875 11.48775 5.0546875 11.34375 C 4.7126875 11.19975 4.41425 10.988891 4.15625 10.712891 C 3.90425 10.436891 3.7027344 10.099265 3.5527344 9.6972656 C 3.4087344 9.2892656 3.3359375 8.8227812 3.3359375 8.3007812 C 3.3359375 7.7787813 3.4143125 7.3180156 3.5703125 6.9160156 C 3.7323125 6.5080156 3.9449844 6.1646719 4.2089844 5.8886719 C 4.4729844 5.6126719 4.7789531 5.4055781 5.1269531 5.2675781 C 5.4749531 5.1235781 5.8387969 5.0527344 6.2167969 5.0527344 z "
     id="path4" />
</svg>

<svg xmlns="http://www.w3.org/2000/svg" viewBox="0 0 16 16">
 <path d="m 1.6 0 c -0.886 0 -1.6 0.713 -1.6 1.6 l 0 12.801 c 0 0.886 0.713 1.6 1.6 1.6 l 12.801 0 c 0.886 0 1.6 -0.713 1.6 -1.6 l 0 -12.801 c 0 -0.886 -0.713 -1.6 -1.6 -1.6 l -12.801 0 z m 8.02 4.441 l 0 2.465 c 0.192 -0.072 0.388 -0.126 0.586 -0.162 c 0.198 -0.042 0.396 -0.063 0.594 -0.063 c 0.36 0 0.66 0.05 0.9 0.152 c 0.24 0.102 0.432 0.249 0.576 0.441 c 0.144 0.186 0.243 0.412 0.297 0.676 c 0.06 0.264 0.09 0.555 0.09 0.873 l 0 2.6 l -0.586 0 l 0 -2.412 c 0 -0.33 -0.024 -0.608 -0.072 -0.836 c -0.042 -0.228 -0.117 -0.415 -0.225 -0.559 c -0.102 -0.144 -0.24 -0.247 -0.414 -0.307 c -0.174 -0.066 -0.392 -0.098 -0.656 -0.098 c -0.102 0 -0.214 0.009 -0.334 0.027 c -0.114 0.018 -0.222 0.038 -0.324 0.063 c -0.102 0.018 -0.193 0.038 -0.277 0.063 c -0.078 0.024 -0.13 0.043 -0.154 0.055 l 0 4 l -0.584 0 l 0 -6.875 l 0.584 -0.107 z m -3.404 0.611 c 0.234 0 0.447 0.015 0.639 0.045 c 0.192 0.03 0.36 0.069 0.504 0.117 c 0.144 0.042 0.267 0.087 0.369 0.135 c 0.102 0.042 0.18 0.081 0.234 0.117 l -0.199 0.531 c -0.15 -0.09 -0.342 -0.178 -0.576 -0.262 c -0.228 -0.09 -0.512 -0.135 -0.854 -0.135 c -0.39 0 -0.733 0.065 -1.027 0.197 c -0.288 0.132 -0.531 0.319 -0.729 0.559 c -0.198 0.24 -0.347 0.525 -0.449 0.855 c -0.096 0.33 -0.145 0.696 -0.145 1.098 c 0 0.414 0.049 0.789 0.145 1.125 c 0.102 0.33 0.247 0.612 0.439 0.846 c 0.192 0.234 0.427 0.415 0.703 0.541 c 0.282 0.126 0.603 0.188 0.963 0.188 c 0.396 0 0.726 -0.035 0.99 -0.107 c 0.27 -0.078 0.473 -0.156 0.611 -0.234 l 0.172 0.523 c -0.042 0.03 -0.115 0.065 -0.217 0.107 c -0.102 0.036 -0.231 0.075 -0.387 0.117 c -0.156 0.042 -0.335 0.074 -0.539 0.098 c -0.204 0.03 -0.434 0.045 -0.686 0.045 c -0.402 0 -0.777 -0.071 -1.125 -0.215 c -0.342 -0.144 -0.64 -0.355 -0.898 -0.631 c -0.252 -0.276 -0.454 -0.614 -0.604 -1.016 c -0.144 -0.408 -0.217 -0.874 -0.217 -1.396 c 0 -0.522 0.078 -0.983 0.234 -1.385 c 0.162 -0.408 0.375 -0.751 0.639 -1.027 c 0.264 -0.276 0.57 -0.483 0.918 -0.621 c 0.348 -0.144 0.712 -0.215 1.09 -0.215 z" style="fill:#353535;fill-opacity:1"/>
</svg>
